Newaita/actions/32/stroke-join-bevel.svg

<svg height="32" viewBox="0 0 32 32" width="32" xmlns="http://www.w3.org/2000/svg"><g fill="#424242"><path d="m14.554688 13.480469v15.875h7.9375v-7.9375h5.292968v-7.9375zm2.644531 2.644531h7.9375v2.648438h-5.292969v7.9375h-2.644531zm0 0"/><path d="m14.554688 2.894531v.007813h-.664063c-.328125 0-.648437.125-.890625.347656l-8.601562 7.941406c-.269532.246094-.421876.597656-.421876.964844v.664062h-.007812v16.535157h7.9375v-15.335938l3.1875-3.183593h12.691406v-7.941407zm-.148438 2.640625h.148438v.007813h10.582031v2.644531h-10.582031v.007812c-.351563 0-.683594.136719-.933594.386719l-3.96875 3.96875c-.246094.246094-.382813.582031-.382813.929688h-.007812v13.230469h-2.648438v-13.890626h-.003906v-.085937zm0 0"/></g></svg>

<?xml version="1.0" encoding="UTF-8"?>
<svg xmlns="http://www.w3.org/2000/svg" xmlns:xlink="http://www.w3.org/1999/xlink" width="32px" height="32px" viewBox="0 0 32 32" version="1.1">
<g id="surface1">
<path style=" stroke:none;fill-rule:nonzero;fill:rgb(25.882354%,25.882354%,25.882354%);fill-opacity:1;" d="M 14.554688 13.480469 L 14.554688 29.355469 L 22.492188 29.355469 L 22.492188 21.417969 L 27.785156 21.417969 L 27.785156 13.480469 Z M 17.199219 16.125 L 25.136719 16.125 L 25.136719 18.773438 L 19.84375 18.773438 L 19.84375 26.710938 L 17.199219 26.710938 Z M 17.199219 16.125 "/>
<path style=" stroke:none;fill-rule:nonzero;fill:rgb(25.882354%,25.882354%,25.882354%);fill-opacity:1;" d="M 14.554688 2.894531 L 14.554688 2.902344 L 13.890625 2.902344 C 13.5625 2.902344 13.242188 3.027344 13 3.25 L 4.398438 11.191406 C 4.128906 11.4375 3.976562 11.789062 3.976562 12.15625 L 3.976562 12.820312 L 3.96875 12.820312 L 3.96875 29.355469 L 11.90625 29.355469 L 11.90625 14.019531 L 15.09375 10.835938 L 27.785156 10.835938 L 27.785156 2.894531 Z M 14.40625 5.535156 L 14.554688 5.535156 L 14.554688 5.542969 L 25.136719 5.542969 L 25.136719 8.1875 L 14.554688 8.1875 L 14.554688 8.195312 C 14.203125 8.195312 13.871094 8.332031 13.621094 8.582031 L 9.652344 12.550781 C 9.40625 12.796875 9.269531 13.132812 9.269531 13.480469 L 9.261719 13.480469 L 9.261719 26.710938 L 6.613281 26.710938 L 6.613281 12.820312 L 6.609375 12.820312 L 6.609375 12.734375 Z M 14.40625 5.535156 "/>
</g>
</svg>
